!!!!SEGMENT: pl-kk--kk-i-382--025-004_anonim--nro-10-agnus.krn
!!!cenid: 18xx:1507
!!!COM: Anonim
!!!COM-rismid: pe30004985
!!!CDT:
!!!CNT:
!!!OTL: Nro 10 Agnus
!!!PDT:
!!!AGN: Sacred
!!!SMS-siglum: PL-Kk
!!!SMS-shelfmark: Kk.I.382
!!!SMS-shelfwork: 025-004
!!!SMS-variant:
!!!SMS-altvar:
!!!NIFC-rismid: 1001139157
!!!URL-scan: http://repozytorium.nifc.pl/skany/pl-kk-nut--i-382
!!!ONB-nifc: UWAGA: obsada: S (T 1), A (B 1), T 2, B 2; S (T 1): skan 0027; A (B 1): skan 0174; T 2: skan 0099; B 2: skan 0246
**kern	**text	**kern	**text	**kern	**text	**kern	**text
*part4	*part4	*part3	*part3	*part2	*part2	*part1	*part1
*staff4	*staff4	*staff3	*staff3	*staff2	*staff2	*staff1	*staff1
*I"Basso II	*	*I"Tenore II	*	*I"Alto vel Basso I	*	*I"Soprano vel Tenore I.	*
*I'B 2	*	*I'T 2	*	*I'A (B 1)	*	*I'S (T 1)	*
*clefF4	*	*clefC4	*	*clefC3	*	*clefC1	*
*k[]	*	*k[]	*	*k[]	*	*k[]	*
*M4/4	*	*M4/4	*	*M4/4	*	*M4/4	*
*met(C.)	*	*met(C.)	*	*met(C.)	*	*met(C.)	*
=1	=1	=1	=1	=1	=1	=1	=1
*2\right	*	*2\right	*	*2\right	*	*2\right	*
!LO:TX:a:t=P:problem:all\right:global	!	!LO:TX:a:t=P:problem:all\right:global	!	!LO:TX:a:t=P:problem:all\right:global	!	!LO:TX:a:t=P:problem:all\right:global	!
!LO:TX:a:t=Agnus.	!	!LO:TX:a:t=Agnus.	!	!LO:TX:a:t=Agnus	!	!LO:TX:a:t=Agnus.	!
!LO:TX:a:t=P:problem:napis "Agnus." przed kluczem	!	!LO:TX:a:t=P:problem:napis "Agnus." przed kluczem	!	!LO:TX:a:t=P:problem:napis "Agnus" przed kluczem	!	!LO:TX:a:t=P:problem:napis "Agnus." przed kluczem	!
2C/	A-	2.G/	A-	8g\L	A-	(>8ee\L	A-
.	.	.	.	8f\	.	8dd\	.
.	.	.	.	8e\	.	8cc\	.
.	.	.	.	8f\J	.	8dd\J)	.
(<4E/	-gnus	.	.	(>4g\	-gnus	(>4ee\	-gnus
4C/)	.	4G/	-gnus	8f\L	.	8dd\L	.
.	.	.	.	8e\J)	.	8cc\J)	.
=2	=2	=2	=2	=2	=2	=2	=2
4G\	De-	4G/	De-	(8e\L	De-	(8cc\L	De-
.	.	.	.	8d\J)	.	8b\J)	.
4GG/	-i	4G/	-i	4d\	-i	4b\	-i
4r	.	4r	.	4r	.	4r	.
(<8GG/L	qui	4d\	qui	4g\	qui	4ff\	qui
8BB/J)	.	.	.	.	.	.	.
=3	=3	=3	=3	=3	=3	=3	=3
(<8BB/L	tol-	(>8d\L	tol-	4g\	tol-	(>8ff\L	tol-
8C/J)	.	8c\J)	.	.	.	8ee\J)	.
4C/	-lis	4c\	-lis	4g\	-lis	4ee\	-lis
4r	.	4r	.	4r	.	4r	.
(<8GG/L	qui	(>8B\L	qui	4g\	pec-	(>8dd\L	qui
8BB/J)	.	8d\J)	.	.	.	8ff\J)	.
=4	=4	=4	=4	=4	=4	=4	=4
(<8BB/L	tol-	(>8d\L	tol-	4g\	-ca-	(>8ff\L	tol-
8C/J)	.	8c\J)	.	.	.	8ee\J)	.
4C/	-lis	4c\	-lis	4g\	-ta	4ee\	-lis
4r	.	4r	.	4r	.	4r	.
4C/	pec-	4c\	pec-	4g\	pec-	4ee\	pec-
!	!	!	!	!LO:LB:g=original	!	!LO:LB:g=original	!
=5	=5	=5	=5	=5	=5	=5	=5
2C/	-ca-	2c\	-ca-	(>4g\	-ca-	(>4ee\	-ca-
.	.	.	.	8a\L	.	8ff\L	.
.	.	.	.	8g\J)	.	8ee\J)	.
(<4BB/	-ta	2G/	-ta	(>4f\	-ta	(>4dd\	-ta
4C/)	.	.	.	4e\)	.	4cc\)	.
!LO:LB:g=original	!	!LO:LB:g=original	!	!	!	!	!
=6	=6	=6	=6	=6	=6	=6	=6
4G\	mun-	4G/	mun-	4e\	mun-	4cc\	mun-
4GG/	-di	4G/	-di	4d\	-di	4b\	-di
2r	.	2r	.	2r	.	2r	.
=7	=7	=7	=7	=7	=7	=7	=7
2C/	A-	2.G/	A-	(>8g\L	A-	(>8ee\L	A-
.	.	.	.	8f\	.	8dd\	.
.	.	.	.	8e\	.	8cc\	.
.	.	.	.	8f\J)	.	8dd\J)	.
(>4E\	-gnus	.	.	(>4g\	-gnus	(>4ee\	-gnus
4C\)	.	4G/	-gnus	8f\L	.	8dd\L	.
.	.	.	.	8e\J)	.	8cc\J)	.
=8	=8	=8	=8	=8	=8	=8	=8
4G\	De-	4G/	De-	(>8e\L	De-	(>8cc\L	De-
.	.	.	.	8d\J)	.	8b\J)	.
4GG/	-i	4G/	-i	4d\	-i	4b\	-i
4r	.	4r	.	4r	.	4r	.
(<8GG/L	qui	4d\	qui	4g\	qui	4ff\	qui
8BB/J)	.	.	.	.	.	.	.
=9	=9	=9	=9	=9	=9	=9	=9
(<8BB/L	tol-	(>8d\L	tol-	4g\	tol-	(>8ff\L	tol-
8C/J)	.	8c\J)	.	.	.	8ee\J)	.
4C/	-lis	4c\	-lis	4g\	-lis	4ee\	-lis
4r	.	4r	.	4r	.	4r	.
(<8GG/L	qui	(>8B\L	qui	4g\	qui	(>8dd\L	qui
8BB/J)	.	8d\J)	.	.	.	8ff\J)	.
!	!	!	!	!LO:LB:g=original	!	!LO:LB:g=original	!
=10	=10	=10	=10	=10	=10	=10	=10
8BB/L	tol-	(>8d\L	tol-	4g\	tol-	(>8ff\L	tol-
8C/J	.	8c\J)	.	.	.	8ee\J)	.
4C/	-lis	4c\	-lis	4g\	-lis	4ee\	-lis
4r	.	4r	.	4r	.	4r	.
4C/	pec-	4c\	pec-	4g\	pec-	4ee\	pec-
=11	=11	=11	=11	=11	=11	=11	=11
2C/	-ca-	2c\	-ca-	(>4g\	-ca-	(>4ee\	-ca-
.	.	.	.	8a\L	.	8ff\L	.
.	.	.	.	8g\J)	.	8ee\J)	.
(<4BB/	-ta	2G/	-ta	(>4f\	-ta-	(>4dd\	-ta
4C/)	.	.	.	4e\)	.	4cc\)	.
!	!	!LO:LB:g=original	!	!	!	!	!
=12	=12	=12	=12	=12	=12	=12	=12
4G\	mun-	4G/	mun-	4e\	-mun-	4cc\	mun-
4GG/	-di	4G/	-di	4d\	-di	4b\	-di
!LO:LB:g=original	!	!	!	!	!	!	!
4r	.	4r	.	(>2g\	mi-	4r	.
(>4G\	mi-	(>4B\	mi-	.	.	[>4dd\	mi-
=13	=13	=13	=13	=13	=13	=13	=13
2A\)	.	2c\)	.	2f#X\)	.	2dd\]	.
2B\	-se-	2G/	-se-	2fn\	-se-	2dd\	-se-
=14	=14	=14	=14	=14	=14	=14	=14
(>4c\	-re-	2G/	-re-	2e\	-re-	2cc\	-re-
8G\L	.	.	.	.	.	.	.
8E\J)	.	.	.	.	.	.	.
!	!	!	!	!LO:TX:a:t=P:problem:napis na pięciolinii za kreską	!	!	!
!	!	!	!	!LO:TX:b:i:t=V&colon;S&colon;	!	!	!
2C/	-re	2G/	-re	2e\	-re,	2cc\	-re
!	!	!	!	!LO:PB:g=original	!	!	!
=15	=15	=15	=15	=15	=15	=15	=15
2r	.	2r	.	2r	.	2r	.
(>2C/	mi-	(>2G/	mi-	(>2e\	mi-	(>2cc\	mi-
=16	=16	=16	=16	=16	=16	=16	=16
2D\)	.	2d\)	.	2f\)	.	2b\)	.
2E\	-se-	2c\	-se-	2g\	-se-	2b-X\	-se-
!	!	!	!	!	!	!LO:LB:g=original	!
=17	=17	=17	=17	=17	=17	=17	=17
4F\	-re-	4c\	-re-	4f\	-re-	4a\	-re-
4F\	-re	4c\	-re	4f\	-re	4a\	-re
(>2D\	mi-	[>2A\	mi-	(>2f#X\	mi-	(>2dd\	mi-
=18	=18	=18	=18	=18	=18	=18	=18
2E\)	.	2A\]	.	2g\)	.	2cc#X\)	.
2F#X\	-se-	2d\	-se-	2a\	-se-	2ccn\	-se-
=19	=19	=19	=19	=19	=19	=19	=19
4G\	-re-	4d\	-re-	4g\	-re-	4b\	-re-
4GG/	-re	4d\	-re	4g\	-re	4b\	-re
!	!	!LO:LB:g=original	!	!	!	!	!
(>2G\	mi-	[>2d\	mi-	(>2g\	mi-	(>2b\	mi-
=20	=20	=20	=20	=20	=20	=20	=20
2A\)	.	2d\]	.	2f#X\)	.	2cc\)	.
2B\	-se-	2G/	-se-	2fn\	-se-	2dd\	-se-
!LO:LB:g=original	!	!	!	!	!	!	!
=21	=21	=21	=21	=21	=21	=21	=21
(>4c\	-re-	(>4G\	-re-	(>4e\	-re-	(>4cc\	-re-
4G\)	.	4B\)	.	4f\)	.	4dd\)	.
(4E\	-re	2c\	-re	2g\	-re	2ee\	-re
4C\)	.	.	.	.	.	.	.
!	!	!	!	!LO:LB:g=original	!	!	!
=22	=22	=22	=22	=22	=22	=22	=22
(>4F\	no-	(>2c\	no-	(>2a\	no-	1dd	no-
4D\	.	.	.	.	.	.	.
4G\	.	2B\)	.	2g\)	.	.	.
4GG/)	.	.	.	.	.	.	.
=23	=23	=23	=23	=23	=23	=23	=23
2C/	-bis	2c\	-bis	2g\	-bis	2ee\	-bis
(>2G\	mi-	[>2d\	mi-	(>2g\	mi-	(>2b\	mi-
=24	=24	=24	=24	=24	=24	=24	=24
2A\)	.	2d\]	.	2f#X\)	.	2cc\)	.
2B\	-se-	2G/	-se-	2fn\	-se-	2dd\	-se-
!	!	!	!	!	!	!LO:LB:g=original	!
=25	=25	=25	=25	=25	=25	=25	=25
(>4c\	-re-	(>4G\	-re-	(>4e\	-re-	(>4cc\	-re-
4G\)	.	4B\)	.	4f\)	.	4dd\)	.
(>4E\	-re	2c\	-re	2g\	-re	2ee\	-re
4C\)	.	.	.	.	.	.	.
=26	=26	=26	=26	=26	=26	=26	=26
(>4F\	no-	(>2c\	no-	1g	no-	1dd	no-
4D\	.	.	.	.	.	.	.
4G\	.	2B\)	.	.	.	.	.
4GG/)	.	.	.	.	.	.	.
=27	=27	=27	=27	=27	=27	=27	=27
1C	-bis.	1c	-bis.	1g	-bis.	1ee	-bis
!LO:LB:g=original	!	!LO:LB:g=original	!	!LO:LB:g=original	!	!	!
==28	==28	==28	==28	==28	==28	==28	==28
*M4/4	*	*M4/4	*	*M4/4	*	*M4/4	*
*met(C.)	*	*met(C.)	*	*met(C.)	*	*met(C.)	*
(>4C\	A-	2.c\	A-	2.g\	A-	2.ee\	A-
4E\)	.	.	.	.	.	.	.
(>4G\	-gnus	.	.	.	.	.	.
4c\)	.	4c\	-gnus	4g\	-gnus	4ee\	-gnus
=29	=29	=29	=29	=29	=29	=29	=29
(>4B-X\	De-	2c\	De-	2g\	De-	2ee\	De-
4G\)	.	.	.	.	.	.	.
4E\	-i	4c\	-i	4g\	-i	4ee\	-i
4C/	qui	4c\	qui	4g\	qui	4ee\	qui
=30	=30	=30	=30	=30	=30	=30	=30
4F\	tol-	4c\	tol-	4a\	tol-	4ff\	tol-
4F\	-lis	4c\	-lis	4a\	-lis	4ff\	-lis
4r	.	4r	.	4r	.	4r	.
4F\	pec-	4c\	pec-	4a\	pec-	4ff\	pec-
!	!	!	!	!	!	!LO:LB:g=original	!
=31	=31	=31	=31	=31	=31	=31	=31
4C/	-ca-	4c\	-ca-	4g\	-ca-	4ee\	-ca-
4C/	-ta	4c\	-ta	4a\	-ta	4ff\	-ta
2C/	mun-	2e\	mun-	2b-X\	mun-	2gg\	mun-
=32	=32	=32	=32	=32	=32	=32	=32
2.F\	-di,	2c\	-di	2a\	-di	2ff\	-di
.	.	2r	.	2r	.	2r	.
4r	.	.	.	.	.	.	.
=33	=33	=33	=33	=33	=33	=33	=33
(>4D\	A-	2.A\	A-	2.f#X\	A-	2.dd\	A-
4F#X\)	.	.	.	.	.	.	.
(>4A\	-gnus	.	.	.	.	.	.
4d\)	.	4A\	-gnus	4f#\	-gnus	4dd\	-gnus
!LO:LB:g=original	!	!	!	!LO:LB:g=original	!	!	!
=34	=34	=34	=34	=34	=34	=34	=34
(>4cn\	De-	2A\	De-	2f#X\	De-	2dd\	De-
4A\)	.	.	.	.	.	.	.
4F#X\	-i	4A\	-i	4f#\	-i	4dd\	-i
4D\	qui	4A\	qui	4f#\	qui	4dd\	qui
!	!	!LO:LB:g=original	!	!	!	!	!
=35	=35	=35	=35	=35	=35	=35	=35
4G\	tol-	4B\	tol-	4g\	tol-	4dd\	tol-
4GG/	-lis	4B\	-lis	4g\	-lis	4dd\	-lis
4r	.	4r	.	4r	.	4r	.
4G\	pec-	4B\	pec-	4g\	pec-	4dd\	pec-
=36	=36	=36	=36	=36	=36	=36	=36
4D\	-ca-	4A\	-ca-	4f#X\	-ca-	4dd\	-ca-
4D\	-ta	4B\	-ta	4g\	-ta	4dd\	-ta
2D\	mun-	2c\	mun-	2a\	mun-	2dd\	mun-
!	!	!	!	!	!	!LO:LB:g=original	!
=37	=37	=37	=37	=37	=37	=37	=37
2G\	-di	2B\	-di	2g\	-di	2dd\	-di
2G\	pec-	2B\	pec-	2g\	pec-	2dd\	pec-
=38	=38	=38	=38	=38	=38	=38	=38
2F#X\	-ca-	2c\	-ca-	2a\	-ca-	2ee-X\	-ca-
2G\	-ta	2B\	-ta	2g\	-ta	2dd\	-ta
=39	=39	=39	=39	=39	=39	=39	=39
(>4c\	mun-	(>4A\	mun-	(>2f#X\	mun-	1ee-X	mun-
4A\	.	4c\	.	.	.	.	.
4G\	.	4B\	.	4g\	.	.	.
4F#X\)	.	4c\)	.	4a\)	.	.	.
=40	=40	=40	=40	=40	=40	=40	=40
!	!	!	!	!	!	!LO:TX:a:t=P:problem:napis na pięciolinii za kreską	!
!	!	!	!	!	!	!LO:TX:a:i:t=Seque Dona V&colon;S&colon;	!
1G	-di.	1B	-di.	1g	-di.	1dd	-di;
!LO:LB:g=original	!	!LO:LB:g=original	!	!LO:LB:g=original	!	!LO:PB:g=original	!
==41	==41	==41	==41	==41	==41	==41	==41
*M4/4	*	*M4/4	*	*M4/4	*	*M4/4	*
*met(C.)	*	*met(C.)	*	*met(C.)	*	*met(C.)	*
!LO:TX:a:t=Dona.	!	!LO:TX:a:t=Dona.	!	!LO:TX:a:t=Dona.	!	!LO:TX:a:t=Dona	!
!LO:TX:a:t=P:problem:napis "Dona." przed kluczem	!	!LO:TX:a:t=P:problem:napis "Dona." przed kluczem	!	!LO:TX:a:t=P:problem:napis "Dona" przed kluczem	!	!LO:TX:a:t=P:problem:napis "Dona" na pięciolinii przed kluczem	!
4C/	Do-	4G/	Do-	4e\	Do-	4cc\	Do-
4C/	-na	4G/	-na	4d\	-na	4b\	-na
4E\	no-	4G/	no-	4e\	no-	4cc\	no-
4F\	-bis	4G/	-bis	4f\	-bis	4dd\	-bis
=42	=42	=42	=42	=42	=42	=42	=42
2G\	pa-	2G/	pa-	2e\	pa-	2cc\	pa-
2G\	-cem	2G/	-cem	2d\	-cem	2b\	-cem
=43	=43	=43	=43	=43	=43	=43	=43
4G\	do-	4B\	do-	4f\	do-	4dd\	do-
4G\	-na-	4c\	-na	4e\	-na	4cc\	-na
4B\	-no-	4B\	no-	4f\	no-	4dd\	no-
4G\	-bis	4G/	-bis	4g\	-bis	4ee\	-bis
=44	=44	=44	=44	=44	=44	=44	=44
(>4c\	pa-	2G/	pa-	2f\	pa-	2dd\	pa-
8G\L	.	.	.	.	.	.	.
8E\J)	.	.	.	.	.	.	.
2C/	-cem	2G/	-cem	2e\	-cem	2cc\	-cem
=45	=45	=45	=45	=45	=45	=45	=45
2c\	do-	2G/	do-	2e\	do-	2cc\	do-
2A\	-na	2A/	-na	2f#X\	-na	2cc\	-na
!	!	!	!	!LO:LB:g=original	!	!LO:LB:g=original	!
=46	=46	=46	=46	=46	=46	=46	=46
2G\	no-	2.d\	no-	2g\	no-	2b\	no-
(>4F#X\	-bis	.	.	(>4a\	-bis	(>4cc\	-bis
4G\)	.	4d\	-bis	4g\)	.	4b\)	.
!	!	!LO:LB:g=original	!	!	!	!	!
=47	=47	=47	=47	=47	=47	=47	=47
1D	pa-	1d	pa-	1f#X	pa-	1a	pa-
!LO:LB:g=original	!	!	!	!	!	!	!
=48	=48	=48	=48	=48	=48	=48	=48
2G\	-cem	2d\	-cem	2g\	-cem	2b\	-cem
2r	.	2r	.	2r	.	2r	.
=49	=49	=49	=49	=49	=49	=49	=49
(>4G\	do-	(>4d\	do-	2.g\	do-	(>4b\	do-
4A\)	.	4c\)	.	.	.	4cc\)	.
(>4B\	-na	(>4B\	-na	.	.	(>4dd\	-na
4G\)	.	4d\)	.	4g\	-na	4b\)	.
=50	=50	=50	=50	=50	=50	=50	=50
(>4c\	no-	2c\	no-	2.g\	no-	2ee\	no-
4G\)	.	.	.	.	.	.	.
(>4E\	-bis	2G/	-bis	.	.	(>4cc\	-bis
4D\)	.	.	.	4fn\	-bis	4b\)	.
=51	=51	=51	=51	=51	=51	=51	=51
(>4C\	pa-	(<2.G/	pa-	(>4e\	pa-	4cc\	no-
4D\	.	.	.	4f\	.	4b\	-bis
4E\	.	.	.	4e\	.	(>4cc\	pa
4F\)	.	4A/)	.	4d\)	.	4dd\)	.
=52	=52	=52	=52	=52	=52	=52	=52
2G\	-cem	2G/	-cem	2d\	-cem	2b\	cem
4r	.	4r	.	4r	.	4r	.
4G\	da	4G/	da	4d\	da	4b\	da
!	!	!	!	!	!	!LO:LB:g=original	!
=53	=53	=53	=53	=53	=53	=53	=53
2F#X\	no-	1A	pa-	2e-X\	no-	2cc\	no-
2F#\	-bis	.	.	2e-\	-bis	2cc\	-bis
!	!	!	!	!LO:LB:g=original	!	!	!
=54	=54	=54	=54	=54	=54	=54	=54
4G\	pa-	2G/	-cem	4d\	pa-	4b\	pa-
4G\	-cem	.	.	4d\	-cem	4b\	-cem
2r	.	2r	.	2r	.	2r	.
!	!	!LO:LB:g=original	!	!	!	!	!
=55	=55	=55	=55	=55	=55	=55	=55
(>4d\	do-	(>4B\	do-	2g\	Do-	2ff\	do-
4c\)	.	4c\)	.	.	.	.	.
(>4B\	-na	(>4d\	-na	2g\	-na	2dd\	-na
4G\)	.	4B\)	.	.	.	.	.
=56	=56	=56	=56	=56	=56	=56	=56
(>4c\	no-	(>4c\	no-	(>4g\	no-	(>4ee\	no-
4G\)	.	4B\)	.	4f\)	.	4dd\)	.
(>4E\	-bis	2G/	-bis	2e\	-bis	2cc\	-bis
4C\)	.	.	.	.	.	.	.
!LO:LB:g=original	!	!	!	!	!	!	!
=57	=57	=57	=57	=57	=57	=57	=57
2BB/	do-	2G/	do-	2d\	do-	2ff\	do-
2C/	-na	2G/	-na	2e\	-na	2ee\	-na
=58	=58	=58	=58	=58	=58	=58	=58
2F\	no-	2A/	no-	2f\	no-	2dd\	no-
(>4E\	-bis	(<4G/	-bis	(>4g\	-bis	(>4cc\	-bis
4F\)	.	4A/)	.	4f\)	.	4dd\)	.
=59	=59	=59	=59	=59	=59	=59	=59
(>2G\	pa-	1G	pa-	(>2e\	pa-	(>2cc\	pa-
2GG/)	.	.	.	2d\)	.	2b\)	.
=60	=60	=60	=60	=60	=60	=60	=60
2C/	cem	2G/	-cem	2.e\	-cem,	2cc\	-cem
2r	.	2r	.	.	.	2r	.
.	.	.	.	4r	.	.	.
!	!	!	!	!LO:LB:g=original	!	!LO:LB:g=original	!
=61	=61	=61	=61	=61	=61	=61	=61
(>4d\	do-	(>4B\	do-	2g\	Do-	2ff\	do-
4c\)	.	4c\)	.	.	.	.	.
(>4B\	-na	(>4d\	-na	2g\	-na	2dd\	-na
4G\)	.	4B\)	.	.	.	.	.
!	!	!LO:LB:g=original	!	!	!	!	!
=62	=62	=62	=62	=62	=62	=62	=62
(>4c\	no-	(>4c\	no-	(>4g\	no-	(>4ee\	no-
4G\)	.	4B\)	.	4f\)	.	4dd\)	.
(>4E\	-bis	2G/	-bis	2e\	-bis	2cc\	-bis
4C\)	.	.	.	.	.	.	.
=63	=63	=63	=63	=63	=63	=63	=63
2BB/	do-	2G/	do-	2d\	do-	2ff\	do-
2C/	-na	2G/	-na	2e\	-na	2ee\	-na
=64	=64	=64	=64	=64	=64	=64	=64
2F\	no-	2A/	no-	2f\	no-	2dd\	no-
(>4E\	-bis	(<4G/	-bis	(>4g\	-bis	(>4cc\	-bis
4F\)	.	4A/)	.	4f\)	.	4dd\)	.
=65	=65	=65	=65	=65	=65	=65	=65
(>2G\	pa-	1G	pa-	(>2e\	pa-	(>2cc\	pa-
2GG/)	.	.	.	2d\)	.	2b\)	.
=66	=66	=66	=66	=66	=66	=66	=66
2C/	-cem	2G/	-cem	2.e\	-cem	2cc\	-cem
2r	.	2r	.	.	.	2r	.
.	.	.	.	4r	.	.	.
!LO:LB:g=original	!	!	!	!	!	!	!
=67	=67	=67	=67	=67	=67	=67	=67
(>4F\	do-	1c	do-	1a	Do-	1ff	do-
4G\)	.	.	.	.	.	.	.
(>4A\	-na	.	.	.	.	.	.
4B\)	.	.	.	.	.	.	.
=68	=68	=68	=68	=68	=68	=68	=68
(>4c\	no-	1c	-na	1g	-na	1ee	-na
4G\)	.	.	.	.	.	.	.
(>4E\	-bis	.	.	.	.	.	.
4C\)	.	.	.	.	.	.	.
=69	=69	=69	=69	=69	=69	=69	=69
(<4BB/	do-	1B	no-	(>1f	no-	(>1dd	no-
4GG/)	.	.	.	.	.	.	.
(<4AA/	-na	.	.	.	.	.	.
4BB/)	.	.	.	.	.	.	.
!	!	!	!	!LO:LB:g=original	!	!LO:LB:g=original	!
=70	=70	=70	=70	=70	=70	=70	=70
(<4C/	no-	1G	-bis	4e\	.	4cc\	.
4D/)	.	.	.	4d\)	.	4b\)	.
(>4E\	-bis	.	.	(>4e\	-bis	(>4cc\	-bis
4F\)	.	.	.	4f\)	.	4dd\)	.
!	!	!LO:LB:g=original	!	!	!	!	!
=71	=71	=71	=71	=71	=71	=71	=71
(>2G\	pa-	1G	pa-	(>2e\	pa-	(>2cc\	pa-
2GG/)	.	.	.	2d\)	.	2b\)	.
=72	=72	=72	=72	=72	=72	=72	=72
2C/	-cem	2G/	-cem	2e\	-cem	2cc\	-cem
2G\	pa-	2G/	pa-	2f\	pa-	2dd\	da
=73	=73	=73	=73	=73	=73	=73	=73
2c\	-cem	2c\	-cem	2g\	-cem	2ee\	pa-
2G\	pa-	2B\	pa-	2f\	pa-	2dd\	.
=74	=74	=74	=74	=74	=74	=74	=74
1C	-cem.	1G	-cem.	1e	-cem.	1cc	-cem.
==	==	==	==	==	==	==	==
*-	*-	*-	*-	*-	*-	*-	*-
!!!system-decoration: [(s1,s2,s3,s4)]
!!!RDF**kern: > = above
!!!RDF**kern: < = below
!!!EED: Mateusz Mrugas
!!!EST: 2021-02-06
!!!ENC:Anastazja Marusiak
!!!END:2021-02-03
